X: 40906
T: Trinity Cake
R: waltz
M: 3/4
K: Gmajor
|:D/ D/|GGG GAG|FD2-DzD|ccc cdA|B3- Bz (B/ c/)|
ddd cBA|GE2-Ez c3/4 c/4|BAG FGA|G3-Gz D/ D/|
GGG GAG|FD2-Dz D/D/|ccc cdA|B3-Bz B/ c/|
ddd cBA|GE2-Ez c/c/|BAG FGA|G3-Gz:|

